icon_installer/data/icons/scalable/actions/show-hockey-symbolic.svg

<?xml version="1.0" encoding="UTF-8"?>
<svg height="16px" viewBox="0 0 16 16" width="16px" xmlns="http://www.w3.org/2000/svg">
    <g fill="#222222">
        <path d="m 3.851562 0.0117188 c -0.105468 0.015625 -0.203124 0.046875 -0.300781 0.0937502 c -0.492187 0.246093 -0.691406 0.847656 -0.445312 1.339843 l 3.21875 6.4375 l 1.117187 -2.238281 l -2.546875 -5.09375 c -0.195312 -0.386719 -0.613281 -0.6054685 -1.042969 -0.5390622 z m 5.824219 10.1054692 l -1.117187 2.238281 l 1.546875 3.09375 c 0.171875 0.332031 0.519531 0.542969 0.894531 0.539062 v 0.011719 h 3.5 v -3 h -3.382812 z m 5.324219 2.882812 v 3 h 1 v -3 z m 0 0"/>
        <path d="m 12.148438 0.0117188 c -0.429688 -0.0664063 -0.847657 0.1523432 -1.042969 0.5390622 l -6.222657 12.449219 h -3.484374 v 3 h 3.601562 v -0.011719 c 0.375 0.003907 0.722656 -0.207031 0.894531 -0.539062 l 7 -14 c 0.246094 -0.496094 0.046875 -1.097657 -0.445312 -1.34375 c -0.097657 -0.0468752 -0.195313 -0.0781252 -0.300781 -0.0937502 z m -12.148438 12.9882812 v 3 h 1 v -3 z m 0 0"/>
    </g>
</svg>

<svg xmlns="http://www.w3.org/2000/svg" width="16" height="16"><g fill="#222"><path d="M3.852.012a1 1 0 0 0-.746 1.434l3.218 6.437 1.117-2.238L4.895.55A.996.996 0 0 0 3.852.01zm5.824 10.105-1.117 2.238 1.546 3.094a1 1 0 0 0 .895.54V16h3.5v-3h-3.383zM15 13v3h1v-3zm0 0"/><path d="M12.148.012a.996.996 0 0 0-1.043.539L4.883 13H1.398v3H5v-.012a1 1 0 0 0 .895-.539l7-14a1.003 1.003 0 0 0-.747-1.437zM0 13v3h1v-3zm0 0"/></g></svg>
